source/img/sprite/social-ok.svg

<svg width="16" height="16" viewBox="0 0 16 16" fill="none" xmlns="http://www.w3.org/2000/svg">
<path d="M7.99973 2.42035C8.96186 2.42035 9.74431 3.18736 9.74431 4.1305C9.74431 5.0708 8.96186 5.83781 7.99973 5.83781C7.03761 5.83781 6.25516 5.0708 6.25516 4.1305C6.25516 3.18736 7.03761 2.42035 7.99973 2.42035ZM7.99973 8.25816C10.3239 8.25816 12.2134 6.40597 12.2134 4.1305C12.2134 1.85219 10.3239 0 7.99973 0C5.67557 0 3.78899 1.85219 3.78899 4.1305C3.78899 6.40597 5.67557 8.25816 7.99973 8.25816ZM9.70374 11.6273C10.5615 11.4342 11.3875 11.1018 12.1496 10.6331C12.7263 10.278 12.9002 9.53083 12.5379 8.96551C12.1728 8.39735 11.4135 8.22691 10.8339 8.58485C9.10965 9.6473 6.88981 9.6473 5.16263 8.58485C4.58593 8.22691 3.82377 8.39735 3.46153 8.96551C3.09928 9.53083 3.27316 10.278 3.84985 10.6331C4.61202 11.1018 5.43794 11.4342 6.29573 11.6273L3.93969 13.934C3.45863 14.4056 3.45863 15.1726 3.93969 15.6442C4.18312 15.88 4.4961 15.9993 4.81198 15.9993C5.12785 15.9993 5.44373 15.88 5.68716 15.6442L7.99973 13.3772L10.3152 15.6442C10.7963 16.1186 11.5758 16.1186 12.0598 15.6442C12.5408 15.1726 12.5408 14.4056 12.0598 13.934L9.70374 11.6273Z" fill="#316DC2"/>
</svg>

<svg width="16" height="16" viewBox="0 0 16 16" fill="none" xmlns="http://www.w3.org/2000/svg"><path d="M8 2.42c.962 0 1.744.767 1.744 1.71 0 .94-.782 1.708-1.744 1.708S6.255 5.07 6.255 4.13c0-.943.783-1.71 1.745-1.71Zm0 5.838c2.324 0 4.213-1.852 4.213-4.127C12.213 1.851 10.323 0 8 0 5.676 0 3.789 1.852 3.789 4.13c0 2.276 1.887 4.128 4.21 4.128Zm1.704 3.37a8.03 8.03 0 0 0 2.446-.995c.576-.355.75-1.102.388-1.667a1.247 1.247 0 0 0-1.704-.381 5.444 5.444 0 0 1-5.671 0 1.244 1.244 0 0 0-1.701.38 1.196 1.196 0 0 0 .388 1.668 8.03 8.03 0 0 0 2.446.994L3.94 13.934a1.194 1.194 0 0 0 0 1.71 1.249 1.249 0 0 0 1.747 0L8 13.377l2.315 2.267c.481.475 1.26.475 1.745 0a1.194 1.194 0 0 0 0-1.71l-2.356-2.307Z" fill="#316DC2"/></svg>
